X:179
T:Y Twmpathe
M:2/4
L:1/8
Q:180
C:Trad.
S:Alawon Fy Ngwlad- Bennett 1896
R:Processional
K:G
E/D/ E/G/ BB | c>B GE | G/D/G BB | AG FF | E>G F/E/D/F/ |
E3 E |
E/D/ E/G/ BB | c>B GE | G/D/G BB | AG
FF | E>G F/E/D/F/ | E3 B ||:
B>c dc | BA/G/ AA | B3 B | AG AB | G3 A
| F3 G | F2 E2 | A2 EG/A/ | BA GF |
E2 cB | GF GA | BA GF | E/F/G FD |1 E3 B :|
|2 E4 ||
% ABC2Win Version 2.1 26-10-2001
